X:1
T:Valses Distinguees
T:Valses Distinguees
T:2. Son binocle
T:Satie
C:Satie
%%score { 1 | 2 }
L:1/8
M:3/4
K:C
V:1 treble nm="Vleugel" snm="Pno."
V:2 bass 
V:1
!p!"^Tres lent" d2 | d4 B2- | B4 A2 | B4 A2 | B4 A2 | B2 c2 d2 | B2 c2 d2 | B2 c2 d2 | B4 B2 | %9
 e4 B2- | B4 A2 | ^G4 ^F2 | ^G4 ^F2 | ^G4 ^F2 | ^G2 B4 | ^G2 B4 | ^G2 B4 | c2 A2 _B2 | c2 d2 e2 | %19
 c4 A2 | c4 z2 | z2 B,2 ^C2 | E4 ^C2 | E4 ^C2 | E4 z2 | z2 z2!pp! E2 | D2 G2 E2 | D2 G2 E2 | %28
 D4!p! d2 | d4 B2- | B4"^rallentir et diminuer" A2 | B4 A2 | B4 A2 | !fermata!B6 |] %34
V:2
 z2 | G,2 [D^F]4 | C2 [DG]4 | G,2 [D^F]4 | C2 [DG]4 | G,2 [D^F]4 | C2 [DG]4 | G,2 [D^F]4 | %8
 C2 [DG]4 | E,2 [B,^D]4 | A,2 [B,E]4 | E,2 [B,^D]4 | A,2 [B,E]4 | E,2 [B,^D]4 | A,2 [B,E]4 | %15
 E,2 [B,^D]4 | A,2 [B,E]4 | F,2 [CE]4 | _B,2 [CF]4 | F,2 [CE]4 | _B,2 [CF]4 | A,,2 [E,^G,]4 | %22
 D,2 [E,A,]4 | A,,2 [E,^G,]4 | D,2 [E,A,]4 | G,,2 [C,E,]4 | _B,,2 [C,F,]4 | F,,2 [C,E,]4 | %28
 _B,,2 [C,F,]4 | G,2 [D^F]4 | C2 [DG]4 | G,2 [D^F]4 | C2 [DG]4 |[K:treble] [^fa^c'^f']6 |] %34

